X: 42
T:The Flight Of The Wild Geese
R:Reel
C:Ed Reavy
M:4/4
L:1/8
Z:Joe Reavy
N:It could be a title that recalls the flight of those 
N:Ulster patriots or just a celebration of 
N:one of nature's recurring themes: the 
N:departure of a wild flock to some distant 
N:shore. The tune is superbly built and 
N:fitting to honor both occasions.
K:D
FG|A2 FA gfec|dBAF E2 FG|(3ABA FA BGBc|dBcA G2 FG|
AF (3FEF EFGA|BGFG E2 ef|gece bged|1cdfe d2:|
[2cdfe defg||a2 fd DFAG|FAdf afdf|g2 e=c Gceg|
fagf eAce|a^gab afdf|gfga gece|(3fga fd bged|
[1cdfe defg:|2cdfe d2||
